X: 31
T: The Brown Thorn
M: 3/4
L: 1/8
B: "O'Neill's 31"
N: "Slow" "setting 1" "collected by F. O'Neill"
Z: "Transcribed by Norbert Paap, norbertp@bdu.uva.nl"
K:G
c Bc|d2-Bd ef|gf/2g/2 dd ed/2c/2|B2 GB AG|G2-Gc Bc|
d2-Bd ef|gf/2g/2 dd ed/2c/2|B2 GB ~A-G|G3||
c Bc|d2-Bd ef|g2 b2 ba/2-g/2 f/2-e/2|e4zd|d3 c Bc|
d2-Bd ef|g2 dd ed/2c/2|B2 GB ~A-G|G3||
